modules/open-iconic/icons/copywriting.svg

<svg xmlns="http://www.w3.org/2000/svg" width="8" height="8" viewBox="0 0 8 8">
  <path d="M0 0v1h8v-1h-8zm0 2v1h5v-1h-5zm0 3v1h8v-1h-8zm0 2v1h6v-1h-6zm7.5 0c-.28 0-.5.22-.5.5s.22.5.5.5.5-.22.5-.5-.22-.5-.5-.5z" />
</svg>

<svg xmlns="http://www.w3.org/2000/svg" width="8" height="8"><path d="M0 0v1h8V0H0zm0 2v1h5V2H0zm0 3v1h8V5H0zm0 2v1h6V7H0zm7.5 0c-.28 0-.5.22-.5.5s.22.5.5.5.5-.22.5-.5-.22-.5-.5-.5z"/></svg>
